X: 64
T:London Hornpipe. BF13.063
M:4/4
Q:180
S:J.Lishman()MS,c1825,Lakes,Browne Coll.
R:Hornpipe
O:England
A:Lakes
N:Too many uncertainties to be readily correctable without doing violence
N:to the original intention, so you'll have to make your own
N:edittings..CGP
Z:vmp.Chris Partington
K:Bb
"As Written,uneditted"B,2B2AcAB|dfdB BAGF|EFGE DEFD|C2cd ecAc|!
C2B2Ac/A/B|dfdB BAGF|EFGF DEFD|C2B/A/c/A2:|!
|:f2f2f2ga|bagf edcB|g3f edcB|AFcF dFcF|!
B,2B2Ac/A/B2|dfdB BAGF|EFGE DEFD|B,2BA/c/A2B2:|]
